X: 1
T: Over The Edge
M: 4/4
L: 1/8
R: reel
K: Amaj
|:c|e3c dcdf|eAcA B2A2|ecec deff|eAAc B2A:|
|:F|EAcA B2cA|EAcA BAFA|EAcA B2Ac|efec BcA:|
